X: 031
M: 2/4
L: 1/8
K: G
|:\
|:\
ccBB | eedd | ggbg | agab |\
ccBB | eedd | ggaf | g2g2 :|
|:\
bagf | edcB | BGdB | AGAB |\
bagf | edcB | d>edB | G2G2 :|
|:\
[D2B,2][D2B,2] | [E2C2][E2C2] | c>edB | AGAB |\
[D2B,2][D2B,2] | [E2C2][E2C2] | dBAB | G2G2 :|

